build/img/play-icon.svg

<svg width="50" height="50" viewBox="0 0 50 50" fill="none" xmlns="http://www.w3.org/2000/svg">
<g opacity="0.8">
<path fill-rule="evenodd" clip-rule="evenodd" d="M25 0C11.2 0 0 11.2 0 25C0 38.8 11.2 50 25 50C38.8 50 50 38.8 50 25C50 11.2 38.8 0 25 0ZM22 34.7501L33.675 26.0001C34.35 25.5001 34.35 24.5001 33.675 24.0001L22 15.2501C21.175 14.6251 20 15.2251 20 16.2501V33.7501C20 34.7751 21.175 35.3751 22 34.7501ZM5 25C5 36.025 13.975 45 25 45C36.025 45 45 36.025 45 25C45 13.975 36.025 5 25 5C13.975 5 5 13.975 5 25Z" fill="white"/>
</g>
</svg>

<svg width="50" height="50" viewBox="0 0 50 50" fill="none" xmlns="http://www.w3.org/2000/svg"><path fill-rule="evenodd" clip-rule="evenodd" d="M25 0C11.2 0 0 11.2 0 25s11.2 25 25 25 25-11.2 25-25S38.8 0 25 0zm-3 34.75L33.675 26c.675-.5.675-1.5 0-2L22 15.25c-.825-.625-2-.025-2 1v17.5c0 1.025 1.175 1.625 2 1zM5 25c0 11.025 8.975 20 20 20s20-8.975 20-20S36.025 5 25 5 5 13.975 5 25z" fill="#fff" opacity=".8"/></svg>
